X:102
T: Die Sonne ist verblichen
N: A0116C
O: Europa, Mitteleuropa, Deutschland
N: Praetorius Mus. Sion. VI. No. 195 "Fuer frewden wil ich singen"
R: Romanze, Ballade, Lied
M: 4/2
L: 1/4
K: G
 |  |  | z2G2G2G2 | d2=f4e2 | d2A4
G2 | d4c2c2d2_B2 | A8 |
z2G2G2G2 | d2=f4e2 | d2A4
G2 | d4c2c2d2_B2 | A6
_B2 | c2=f2f2d2 | c2_B4
_e2 | d2c2_B2A2 | G4z2
G2 | c2c2c2d2 | _e4c4 |
z2d2d2d2 | d2c2_B2AG | F4G3A | _B2d4d2A4 | G8

@@@ Tune index: 102
